X: 108
M: 2/4
L: 1/16
K: D
|:\
d4 (de).f.d | e2c2 A4 | B4 (Bc).d.B | A2G2 F4 |\
|:\
f2fg a2f2 | e2ef g4 | d2de f2d2 | (cd).e.c A4 |\
d2de c2cd | B2Bc A4 | B2g2f2e2 | d4 d4 :|


